usr/share/icons/biglinux-icons-material-dark/16/places/folder-gnome.svg

<svg xmlns="http://www.w3.org/2000/svg" width="16" height="16" version="1.1" viewBox="0 0 16 16">
 <defs>
  <style id="current-color-scheme" type="text/css">
   .ColorScheme-Text { color:#dedede; }
  </style>
 </defs>
 <path style="fill:currentColor" class="ColorScheme-Text" d="M 12.779,1 C 9.8188,1 9.2618,5 10.929,5 12.593,5 15.741,1 12.779,1 Z M 8.2298,2 C 8.1828,2 8.1308,2.005 8.0788,2.01 6.3838,2.214 6.9788,4.949 7.8818,5 8.7548,5.05 9.7108,2.008 8.2308,2 Z M 5.1398,3 C 5.0188,2.995 4.8838,3.011 4.7348,3.049 3.1488,3.45 4.4938,5.106 5.3818,4.994 6.1878,4.893 6.3048,3.047 5.1398,3 Z M 2.9288,5 C 2.7868,4.998 2.6328,5.029 2.4698,5.105 1.1658,5.721 2.9098,7.207 3.6768,6.977 4.3478,6.775 3.9198,5.023 2.9288,5 Z M 9.0108,6 C 6.6768,5.963 3.5988,7.065 3.0728,9.279 2.5048,11.676 5.4158,15 8.4498,15 9.9428,15 11.665,14.329 11.987,12.721 12.232,11.495 8.8958,12.023 9.0088,12.834 9.1438,13.807 8.4458,13.652 7.5708,13.025 5.0008,11 12.181,10.034 11.694,7.307 11.543,6.458 10.411,6.024 9.0108,6.002 Z" />
</svg>

<svg xmlns="http://www.w3.org/2000/svg" width="16" height="16">
<defs>
<style id="current-color-scheme" type="text/css">
.ColorScheme-Text{color:#dedede}
</style>
</defs>
<path d="M12.779 1c-2.96 0-3.517 4-1.85 4 1.664 0 4.812-4 1.85-4m-4.55 1q-.07.001-.15.01c-1.695.204-1.1 2.939-.197 2.99.873.05 1.829-2.992.349-3ZM5.14 3a1.4 1.4 0 0 0-.404.049c-1.586.401-.241 2.057.647 1.945.806-.101.923-1.947-.242-1.994M2.93 5a1.05 1.05 0 0 0-.46.105c-1.303.616.44 2.102 1.208 1.872.67-.202.243-1.954-.748-1.977m6.08 1c-2.334-.037-5.412 1.065-5.938 3.279C2.505 11.676 5.416 15 8.45 15c1.493 0 3.215-.671 3.537-2.279.245-1.226-3.091-.698-2.978.113.135.973-.563.818-1.438.191C5 11 12.18 10.034 11.694 7.307c-.151-.849-1.283-1.283-2.683-1.305Z" class="ColorScheme-Text" style="fill:currentColor"/>
</svg>
